X: 20
M:2/4
L:1/16
K:Bb
uFE|DB,DF BEGB|AFAc BABc|dBgf edcB|(3v.c.c.c(ucB) vGBFE|
|:uf2|gf=ef dfBc|dBAB GBFE|DFBc dBAB|gffd .c2vduf|
gf=ef dfBc|dBAB GBFE|DFBd ceAc|dcGA B2:|


